X:1
T:Title
%%score { 1 | 2 }
L:1/8
Q:1/4=100
M:3/4
K:G
V:1 treble nm="Grand Piano"
V:2 bass 
V:1
 [B,D]2 [B,G]2 [DB]2 | [DB]3 [DA] [DG]2 | [EA]2 G2 F2 | G6 | D2 G2 B2 | d3 c B2 | B2 A2 G2 | A6 | %8
w: George~Stebbins * *||||||||
 c2 B2 A2 | [DB]3 [CA] [B,G]2 | A2 G2 F2 | G6 | E2 [G,DF]2 [G,EG]2 | [G,D]3 [B,DG] [DB]2 | %14
w: ||||||
 [CEA]2 [B,DG]2 [A,CF]2 | [G,B,G]6 | [DBd]2 [DGB]2 [DAc]2 | [DBd]3 [DAc] [DGB]2 | %18
w: ||||
 [Ac]2 [FA]2 [GB]2 | [Ac]3 [GB] [FA]2 | [DBd]2 [DGB]2 [DAc]2 | [DBd]3 [DAc] [CGB]2 | %22
w: ||||
 [CEA]2 [B,DG]2 [A,CF]2 | [G,B,G]6 |] %24
w: ||
V:2
 [G,,G,]2 [G,,G,]2 [G,,G,]2 | [G,,G,]3 [A,,F,] [B,,G,]2 | [C,C]2 [D,B,D]2 [D,A,D]2 | [G,B,D]6 | %4
 [G,B,]2[K:treble] [G,B,D]2 [G,DG]2 | [B,DG]3 [A,CF] [G,DG]2 | [G,D]2 [F,A,D]2 [E,A,^C]2 | %7
 [D,F,D]6 | [D,A,D]2 [D,G,D]2 [D,F,D]2 | [G,,G,]3 [G,,G,] [G,,G,]2 | [D,CD]2 [D,B,D]2 [D,A,C]2 | %11
 [E,G,B,]6 | [C,G,C]2 C,2 C,2 | B,,3 G,, G,,2 | C,2 D,2 D,2 | G,,6 | G,2 G,2 G,2 | G,3 G, G,2 | %18
 [D,D]2 [D,D]2 [D,D]2 | [D,D]3 [D,D] [D,D]2 | G,2 G,2 G,2 | G,3 G, G,2 | C,2 D,2 D,2 | G,,6 |] %24

